material/.icons/material/mixer.svg

<svg xmlns="http://www.w3.org/2000/svg" viewBox="0 0 24 24"><path d="M5.68 3.96l5.73 7.69c.14.19.14.45 0 .64L5.65 20l-.15.18c-.74.82-2.03.89-2.86.13-.79-.72-.85-1.94-.21-2.81l4.13-5.53-4.1-5.5c-.63-.85-.58-2.08.21-2.8l.15-.13c.91-.67 2.18-.49 2.86.42m12.64 0c.68-.91 1.95-1.09 2.86-.42l.15.13c.79.72.84 1.94.21 2.8l-4.1 5.5 4.13 5.53c.64.86.58 2.09-.21 2.81-.83.76-2.12.69-2.86-.13l-.15-.18-5.76-7.71a.54.54 0 010-.64l5.73-7.69z"/></svg>

<?xml version="1.0" encoding="UTF-8"?><!DOCTYPE svg PUBLIC "-//W3C//DTD SVG 1.1//EN" "http://www.w3.org/Graphics/SVG/1.1/DTD/svg11.dtd"><svg xmlns="http://www.w3.org/2000/svg" xmlns:xlink="http://www.w3.org/1999/xlink" version="1.1" id="mdi-mixer" width="24" height="24" viewBox="0 0 24 24"><path d="M5.68,3.96L11.41,11.65C11.55,11.84 11.55,12.1 11.41,12.29L5.65,20L5.5,20.18C4.76,21 3.47,21.07 2.64,20.31C1.85,19.59 1.79,18.37 2.43,17.5L6.56,11.97L2.46,6.47C1.83,5.62 1.88,4.39 2.67,3.67L2.82,3.54C3.73,2.87 5,3.05 5.68,3.96M18.32,3.96C19,3.05 20.27,2.87 21.18,3.54L21.33,3.67C22.12,4.39 22.17,5.61 21.54,6.47L17.44,11.97L21.57,17.5C22.21,18.36 22.15,19.59 21.36,20.31C20.53,21.07 19.24,21 18.5,20.18L18.35,20L12.59,12.29C12.45,12.1 12.45,11.84 12.59,11.65L18.32,3.96Z" /></svg>
